public/assets/icons/svg/stat/key-cheat-icon.svg

<svg fill="none" height="24" viewBox="0 0 24 24" width="24" xmlns="http://www.w3.org/2000/svg" xmlns:xlink="http://www.w3.org/1999/xlink"><mask id="a" fill="#fff"><path clip-rule="evenodd" d="m15.3114 21.2205v2.9013h18.3754v3.6268.2418 5.5609h-3.8685v-5.5609h-1.9342v5.5609h-3.8685v-5.5609h-8.7042v2.9013h-9.67126v-9.6712zm-3.7288 5.8027v-1.9342h-1.93423v1.9342z" fill="#fff" fill-rule="evenodd"/></mask><g transform="matrix(.63446683 0 0 .63446683 -.47582 -.159795)"><path clip-rule="evenodd" d="m15.3114 21.2205v2.9013h18.3754v3.6268.2418 5.5609h-3.8685v-5.5609h-1.9342v5.5609h-3.8685v-5.5609h-8.7042v2.9013h-9.67126v-9.6712zm-3.7288 5.8027v-1.9342h-1.93423v1.9342z" fill="#ffc107" fill-rule="evenodd"/><path d="m15.3114 24.1218h-1v1h1zm0-2.9013h1v-1h-1zm18.3754 2.9013h1v-1h-1zm0 9.4295v1h1v-1zm-3.8685 0h-1v1h1zm0-5.5609h1v-1h-1zm-1.9342 0v-1h-1v1zm0 5.5609v1h1v-1zm-3.8685 0h-1v1h1zm0-5.5609h1v-1h-1zm-8.7042 0v-1h-1v1zm0 2.9013v1h1v-1zm-9.67126 0h-1v1h1zm0-9.6712v-1h-1v1zm5.94246 3.8685h1v-1h-1zm0 1.9342v1h1v-1zm-1.93423-1.9342v-1h-1v1zm0 1.9342h-1v1h1zm6.66303-2.9014v-2.9013h-2v2.9013zm17.3754-1h-18.3754v2h18.3754zm1 4.6268v-3.6268h-2v3.6268zm0 .2418v-.2418h-2v.2418zm0 5.5609v-5.5609h-2v5.5609zm-4.8685 1h3.8685v-2h-3.8685zm-1-6.5609v5.5609h2v-5.5609zm-.9342 1h1.9342v-2h-1.9342zm1 4.5609v-5.5609h-2v5.5609zm-4.8685 1h3.8685v-2h-3.8685zm-1-6.5609v5.5609h2v-5.5609zm-7.7042 1h8.7042v-2h-8.7042zm1 1.9013v-2.9013h-2v2.9013zm-10.67126 1h9.67126v-2h-9.67126zm-1-10.6712v9.6712h2v-9.6712zm10.67126-1h-9.67126v2h9.67126zm-4.7288 4.8685v1.9342h2v-1.9342zm-.93423 1h1.93423v-2h-1.93423zm1.00003.9342v-1.9342h-2.00003v1.9342zm.9342-1h-1.93423v2h1.93423z" fill="#4f4f4f" mask="url(#a)"/><path d="m27.1921 16.4384-13.7767 20.9644 7.3492-17.4168-8.3859-.3465 12.2825-18.711765-5.3523 14.641165z" fill="#2196f3" stroke="#4f4f4f"/></g></svg>

<svg width="38" height="38" viewBox="0 0 38 38" fill="none" xmlns="http://www.w3.org/2000/svg">
<mask id="path-1-inside-1" fill="white">
<path fill-rule="evenodd" clip-rule="evenodd" d="M15.3114 21.2205V24.1218L33.6868 24.1218V27.7486V27.9904V33.5513H29.8183V27.9904H27.8841V33.5513H24.0156L24.0156 27.9904L15.3114 27.9904V30.8917H5.64014V21.2205H15.3114ZM11.5826 27.0232V25.089H9.64837V27.0232H11.5826Z"/>
</mask>
<path fill-rule="evenodd" clip-rule="evenodd" d="M15.3114 21.2205V24.1218L33.6868 24.1218V27.7486V27.9904V33.5513H29.8183V27.9904H27.8841V33.5513H24.0156L24.0156 27.9904L15.3114 27.9904V30.8917H5.64014V21.2205H15.3114ZM11.5826 27.0232V25.089H9.64837V27.0232H11.5826Z" fill="#FFC107"/>
<path d="M15.3114 24.1218H14.3114V25.1218L15.3114 25.1218L15.3114 24.1218ZM15.3114 21.2205H16.3114V20.2205H15.3114V21.2205ZM33.6868 24.1218H34.6868V23.1218L33.6868 23.1218L33.6868 24.1218ZM33.6868 33.5513V34.5513H34.6868V33.5513H33.6868ZM29.8183 33.5513H28.8183V34.5513H29.8183V33.5513ZM29.8183 27.9904H30.8183V26.9904H29.8183V27.9904ZM27.8841 27.9904V26.9904H26.8841V27.9904H27.8841ZM27.8841 33.5513V34.5513H28.8841V33.5513H27.8841ZM24.0156 33.5513L23.0156 33.5513L23.0156 34.5513H24.0156V33.5513ZM24.0156 27.9904L25.0156 27.9904L25.0156 26.9904L24.0156 26.9904L24.0156 27.9904ZM15.3114 27.9904L15.3114 26.9904L14.3114 26.9904V27.9904H15.3114ZM15.3114 30.8917V31.8917H16.3114V30.8917H15.3114ZM5.64014 30.8917H4.64014V31.8917H5.64014V30.8917ZM5.64014 21.2205V20.2205H4.64014V21.2205H5.64014ZM11.5826 25.089H12.5826V24.089H11.5826V25.089ZM11.5826 27.0232V28.0232H12.5826V27.0232H11.5826ZM9.64837 25.089V24.089H8.64837V25.089H9.64837ZM9.64837 27.0232H8.64837V28.0232H9.64837V27.0232ZM16.3114 24.1218V21.2205H14.3114V24.1218H16.3114ZM33.6868 23.1218L15.3114 23.1218L15.3114 25.1218L33.6868 25.1218L33.6868 23.1218ZM34.6868 27.7486V24.1218H32.6868V27.7486H34.6868ZM34.6868 27.9904V27.7486H32.6868V27.9904H34.6868ZM34.6868 33.5513V27.9904H32.6868V33.5513H34.6868ZM29.8183 34.5513H33.6868V32.5513H29.8183V34.5513ZM28.8183 27.9904V33.5513H30.8183V27.9904H28.8183ZM27.8841 28.9904H29.8183V26.9904H27.8841V28.9904ZM28.8841 33.5513V27.9904H26.8841V33.5513H28.8841ZM24.0156 34.5513H27.8841V32.5513H24.0156V34.5513ZM23.0156 27.9904L23.0156 33.5513L25.0156 33.5513L25.0156 27.9904L23.0156 27.9904ZM15.3114 28.9904L24.0156 28.9904L24.0156 26.9904L15.3114 26.9904L15.3114 28.9904ZM16.3114 30.8917V27.9904H14.3114V30.8917H16.3114ZM5.64014 31.8917H15.3114V29.8917H5.64014V31.8917ZM4.64014 21.2205V30.8917H6.64014V21.2205H4.64014ZM15.3114 20.2205H5.64014V22.2205H15.3114V20.2205ZM10.5826 25.089V27.0232H12.5826V25.089H10.5826ZM9.64837 26.089H11.5826V24.089H9.64837V26.089ZM10.6484 27.0232V25.089H8.64837V27.0232H10.6484ZM11.5826 26.0232H9.64837V28.0232H11.5826V26.0232Z" fill="#4F4F4F" mask="url(#path-1-inside-1)"/>
<path d="M27.1921 16.4384L13.4154 37.4028L20.7646 19.986L12.3787 19.6395L24.6612 0.927735L19.3089 15.5689L27.1921 16.4384Z" fill="#2196F3" stroke="#4F4F4F"/>
</svg>
